svg/business/shopping_bag_2_fill.svg

<?xml version="1.0" encoding="UTF-8"?>
<svg width="24px" height="24px" viewBox="0 0 24 24" version="1.1" xmlns="http://www.w3.org/2000/svg" xmlns:xlink="http://www.w3.org/1999/xlink">
    <title>shopping_bag_2_fill</title>
    <g id="页面-1" stroke="none" stroke-width="1" fill="none" fill-rule="evenodd">
        <g id="Business" transform="translate(-960.000000, -48.000000)" fill-rule="nonzero">
            <g id="shopping_bag_2_fill" transform="translate(960.000000, 48.000000)">
                <path d="M24,0 L24,24 L0,24 L0,0 L24,0 Z M12.5934901,23.257841 L12.5819402,23.2595131 L12.5108777,23.2950439 L12.4918791,23.2987469 L12.4918791,23.2987469 L12.4767152,23.2950439 L12.4056548,23.2595131 C12.3958229,23.2563662 12.3870493,23.2590235 12.3821421,23.2649074 L12.3780323,23.275831 L12.360941,23.7031097 L12.3658947,23.7234994 L12.3769048,23.7357139 L12.4804777,23.8096931 L12.4953491,23.8136134 L12.4953491,23.8136134 L12.5071152,23.8096931 L12.6106902,23.7357139 L12.6232938,23.7196733 L12.6232938,23.7196733 L12.6266527,23.7031097 L12.609561,23.275831 C12.6075724,23.2657013 12.6010112,23.2592993 12.5934901,23.257841 L12.5934901,23.257841 Z M12.8583906,23.1452862 L12.8445485,23.1473072 L12.6598443,23.2396597 L12.6498822,23.2499052 L12.6498822,23.2499052 L12.6471943,23.2611114 L12.6650943,23.6906389 L12.6699349,23.7034178 L12.6699349,23.7034178 L12.678386,23.7104931 L12.8793402,23.8032389 C12.8914285,23.8068999 12.9022333,23.8029875 12.9078286,23.7952264 L12.9118235,23.7811639 L12.8776777,23.1665331 C12.8752882,23.1545897 12.8674102,23.1470016 12.8583906,23.1452862 L12.8583906,23.1452862 Z M12.1430473,23.1473072 C12.1332178,23.1423925 12.1221763,23.1452606 12.1156365,23.1525954 L12.1099173,23.1665331 L12.0757714,23.7811639 C12.0751323,23.7926639 12.0828099,23.8018602 12.0926481,23.8045676 L12.108256,23.8032389 L12.3092106,23.7104931 L12.3186497,23.7024347 L12.3186497,23.7024347 L12.3225043,23.6906389 L12.340401,23.2611114 L12.337245,23.2485176 L12.337245,23.2485176 L12.3277531,23.2396597 L12.1430473,23.1473072 Z" id="MingCute" fill-rule="nonzero"></path>
                <path d="M18.0606,3 C19.06399,3 19.9030348,3.74110593 20.040846,4.71894978 L20.0567,4.87524 L20.9317,18.8752 C21.0005696,19.9765391 20.1669484,20.91502 19.0846641,20.9945451 L18.9356,21 L5.06453,21 C3.96104826,21 3.07643699,20.1094034 3.06457634,19.0243078 L3.06843,18.8752 L3.94343,4.87524 C4.006016,3.8738735 4.79802055,3.08269925 5.78255543,3.00608524 L5.93953,3 L18.0606,3 Z M15,7 C14.48715,7 14.0644908,7.38604429 14.0067275,7.88337975 L14,8 C14,9.10457 13.1046,10 12,10 C10.8954,10 10,9.10457 10,8 C10,7.44772 9.55228,7 9,7 C8.44772,7 8,7.44772 8,8 C8,10.2091 9.79086,12 12,12 C14.2091,12 16,10.2091 16,8 C16,7.44772 15.5523,7 15,7 Z" id="形状" fill="#09244B"></path>
            </g>
        </g>
    </g>
</svg>

<svg xmlns="http://www.w3.org/2000/svg" width="24" height="24"><g fill="none" fill-rule="nonzero"><path d="M24 0v24H0V0zM12.593 23.258l-.011.002-.071.035-.02.004-.014-.004-.071-.035c-.01-.004-.019-.001-.024.005l-.004.01-.017.428.005.02.01.013.104.074.015.004.012-.004.104-.074.012-.016.004-.017-.017-.427c-.002-.01-.009-.017-.017-.018m.265-.113-.013.002-.185.093-.01.01-.003.011.018.43.005.012.008.007.201.093c.012.004.023 0 .029-.008l.004-.014-.034-.614c-.003-.012-.01-.02-.02-.022m-.715.002a.023.023 0 0 0-.027.006l-.006.014-.034.614c0 .012.007.02.017.024l.015-.002.201-.093.01-.008.004-.011.017-.43-.003-.012-.01-.01z"/><path fill="#09244B" d="M18.06 3a2 2 0 0 1 1.98 1.719l.017.156.875 14a2 2 0 0 1-1.847 2.12l-.15.005H5.066a2 2 0 0 1-2-1.976l.003-.149.875-14a2 2 0 0 1 1.84-1.869L5.94 3zM15 7a1 1 0 0 0-.993.883L14 8a2 2 0 1 1-4 0 1 1 0 0 0-2 0 4 4 0 0 0 8 0 1 1 0 0 0-1-1"/></g></svg>
